packages/core/src/svgs/emp.svg

<svg width="24" height="24" viewBox="0 0 24 24" fill="none" xmlns="http://www.w3.org/2000/svg">
<g clip-path="url(#clip0_31_9944)">
<path d="M0 0H24V24H0V0Z" fill="#F0F3FA"/>
<path d="M9.42854 13.7145H5.35711C5.21568 13.1659 5.14282 12.5916 5.14282 12.0002C5.14282 8.21164 8.18139 5.14307 11.9314 5.14307H18.8571L16.7357 7.14449L16.68 7.11878L9.42854 13.7145Z" fill="url(#paint0_linear_31_9944)"/>
<path d="M18.8571 12C18.8566 13.3502 18.4575 14.6701 17.7098 15.7944C16.9622 16.9187 15.8993 17.7972 14.6545 18.3199C13.4096 18.8425 12.0381 18.986 10.712 18.7325C9.38589 18.4789 8.16415 17.8394 7.19995 16.8943L9.85709 14.1429C10.4303 14.7001 11.2006 15.0082 12 15C12.5604 15.0003 13.1097 14.8436 13.5856 14.5476C14.0616 14.2516 14.4451 13.8282 14.6927 13.3254C14.9403 12.8226 15.0421 12.2605 14.9866 11.7028C14.931 11.1451 14.7204 10.6142 14.3785 10.17L14.5714 9.99862L17.1257 7.44434C18.2433 8.69839 18.8597 10.3203 18.8571 12Z" fill="url(#paint1_linear_31_9944)"/>
<path d="M18.8571 11.9998C18.8576 13.6307 18.2767 15.2083 17.2188 16.4495C16.161 17.6907 14.6954 18.5142 13.0851 18.7723C11.4748 19.0303 9.8252 18.706 8.43245 17.8575C7.0397 17.0091 5.99495 15.692 5.48572 14.1427H9.85715L10.0757 14.3355C10.7271 14.9141 11.9571 15.9984 13.8557 15.9984C16.2857 15.9984 18.4286 13.5727 18.4286 11.1427C18.4286 10.1055 18.2143 9.23552 17.9486 8.58838C18.5453 9.6262 18.8586 10.8027 18.8571 11.9998Z" fill="url(#paint2_linear_31_9944)"/>
</g>
<defs>
<linearGradient id="paint0_linear_31_9944" x1="7.97139" y1="12.5702" x2="14.9443" y2="7.78307" gradientUnits="userSpaceOnUse">
<stop stop-color="#0031A5"/>
<stop offset="0.48" stop-color="#009EEF"/>
<stop offset="1" stop-color="#009DEE"/>
</linearGradient>
<linearGradient id="paint1_linear_31_9944" x1="13.0542" y1="7.44434" x2="13.0542" y2="18.8572" gradientUnits="userSpaceOnUse">
<stop stop-color="#00BAFF"/>
<stop offset="0.67" stop-color="#05207D"/>
</linearGradient>
<linearGradient id="paint2_linear_31_9944" x1="19.0029" y1="13.8555" x2="5.31857" y2="14.4384" gradientUnits="userSpaceOnUse">
<stop stop-color="#03DDFE"/>
<stop offset="0.41" stop-color="#0058C1"/>
<stop offset="0.69" stop-color="#00136C"/>
</linearGradient>
<clipPath id="clip0_31_9944">
<rect width="24" height="24" fill="white"/>
</clipPath>
</defs>
</svg>

<svg xmlns="http://www.w3.org/2000/svg" width="24" height="24" fill="none" viewBox="0 0 24 24"><g clip-path="url(#a)"><path fill="#F0F3FA" d="M0 0h24v24H0z"/><path fill="url(#b)" d="M9.429 13.715H5.357A6.9 6.9 0 0 1 5.143 12c0-3.788 3.038-6.857 6.788-6.857h6.926l-2.121 2.001-.056-.025z"/><path fill="url(#c)" d="M18.857 12A6.856 6.856 0 0 1 7.2 16.894l2.657-2.751A3.03 3.03 0 0 0 12 15a3 3 0 0 0 2.379-4.83l.192-.171 2.555-2.555A6.83 6.83 0 0 1 18.857 12"/><path fill="url(#d)" d="M18.857 12a6.856 6.856 0 0 1-13.371 2.143h4.371l.219.192c.651.58 1.881 1.663 3.78 1.663 2.43 0 4.573-2.425 4.573-4.855a6.8 6.8 0 0 0-.48-2.555A6.8 6.8 0 0 1 18.857 12"/></g><defs><linearGradient id="b" x1="7.971" x2="14.944" y1="12.57" y2="7.783" gradientUnits="userSpaceOnUse"><stop stop-color="#0031A5"/><stop offset=".48" stop-color="#009EEF"/><stop offset="1" stop-color="#009DEE"/></linearGradient><linearGradient id="c" x1="13.054" x2="13.054" y1="7.444" y2="18.857" gradientUnits="userSpaceOnUse"><stop stop-color="#00BAFF"/><stop offset=".67" stop-color="#05207D"/></linearGradient><linearGradient id="d" x1="19.003" x2="5.319" y1="13.855" y2="14.438" gradientUnits="userSpaceOnUse"><stop stop-color="#03DDFE"/><stop offset=".41" stop-color="#0058C1"/><stop offset=".69" stop-color="#00136C"/></linearGradient><clipPath id="a"><path fill="#fff" d="M0 0h24v24H0z"/></clipPath></defs></svg>
